src/components/icon/img/developer_settings.svg

<svg viewBox="0 0 50 50" xmlns="http://www.w3.org/2000/svg"><path d="m43.17 12.11-4.4-4.26-2 1.89-1.66 1.51-2-.94c-.39-.19-.78-.36-1.18-.52s-.78-.3-1.17-.43l-2.15-.76v-4.82h-6.25v4.82l-2.14.76c-.39.13-.8.27-1.22.43s-.83.33-1.23.52l-1.95.94-1.66-1.51-1.95-1.89-4.4 4.26 2 1.89 1.56 1.61-1 1.89c-.19.38-.37.77-.53 1.18s-.31.81-.44 1.19l-.8 2.13h-5v6h5l.78 2.08c.13.38.27.76.44 1.14s.34.75.53 1.13l1 2-1.58 1.65-2 1.89 2.93 2.84-2 2.37-3.13-3.17a2.81 2.81 0 0 1 -.88-2.13 2.84 2.84 0 0 1 .88-2.13l1.95-1.89c-.19-.44-.41-.88-.63-1.32a6.72 6.72 0 0 1 -.54-1.46h-2.74a3 3 0 0 1 -2.24-.9 2.93 2.93 0 0 1 -.88-2.1v-6a2.9 2.9 0 0 1 .88-2.18 3.06 3.06 0 0 1 2.24-.85h2.74a6.72 6.72 0 0 1 .54-1.42c.22-.44.44-.88.63-1.32l-1.95-1.9a3.07 3.07 0 0 1 -.88-2.17 2.8 2.8 0 0 1 .88-2.16l4.49-4.35a3 3 0 0 1 2.15-.85 3.06 3.06 0 0 1 2.24.85l2 1.89c.45-.19.91-.39 1.36-.61a7.11 7.11 0 0 1 1.47-.52v-2.63a2.89 2.89 0 0 1 .88-2.18 3.06 3.06 0 0 1 2.2-.85h6.25a3.09 3.09 0 0 1 2.25.85 2.89 2.89 0 0 1 .88 2.18v2.65a6.82 6.82 0 0 1 1.46.57c.46.22.92.42 1.37.61l2-1.89a3.1 3.1 0 0 1 2.25-.85 3 3 0 0 1 2.15.85l4.44 4.28a2.8 2.8 0 0 1 .88 2.09 3.07 3.07 0 0 1 -.88 2.17l-1.95 1.9 1.07 2.55h-3.32a2 2 0 0 1 -.29-.61 2.34 2.34 0 0 0 -.29-.62l-1.08-1.89 1.66-1.59zm-18.27 16.37a1.47 1.47 0 0 1 -.29.95l-6.25 7.57 6.25 7.67a5.13 5.13 0 0 1 .2 1 2.16 2.16 0 0 1 -.35 1.13 1.39 1.39 0 0 1 -1.31.57 2 2 0 0 1 -1.37-.66l-8-9.75 8-9.66a1.45 1.45 0 0 1 1.37-.66 1.49 1.49 0 0 1 1.07.38 1.78 1.78 0 0 1 .68 1.46zm6-6.53a6.13 6.13 0 0 0 -2.25-2.18 6.05 6.05 0 0 0 -3.12-.85 6.12 6.12 0 0 0 -4 1.42 5.91 5.91 0 0 0 -2.1 3.6l-2.83 3.4a6.45 6.45 0 0 1 -.4-2.36 8.65 8.65 0 0 1 2.74-6.44 9.22 9.22 0 0 1 6.64-2.65 9 9 0 0 1 5.42 1.71 9.19 9.19 0 0 1 3.28 4.4zm4.88 2.93a1.45 1.45 0 0 1 1.22.57 1.82 1.82 0 0 1 .44 1.14 1.29 1.29 0 0 1 -.09.66l-7.08 20.75a1.66 1.66 0 0 1 -1.75 1.23 1.57 1.57 0 0 1 -1.27-.57 1.84 1.84 0 0 1 -.49-1.23c0-.32 0-.5.1-.57l7.14-20.65a1.77 1.77 0 0 1 1.74-1.33zm14.71 12.12-8 9.75a2.07 2.07 0 0 1 -1.46.66 1.5 1.5 0 0 1 -1.09-.41 1.6 1.6 0 0 1 -.29-2.36l6.25-7.64-6.25-7.57a1.38 1.38 0 0 1 -.39-1 1.54 1.54 0 0 1 1.74-1.75 2.07 2.07 0 0 1 1.46.66z" fill="#1873b4"/></svg>

<svg id="Ebene_1" data-name="Ebene 1" xmlns="http://www.w3.org/2000/svg" viewBox="0 0 50 50"><defs><style>.cls-1{fill:#1873b4;}</style></defs><title>developer_settings_50x50px-32</title><path class="cls-1" d="M43.17,12.11l-4.4-4.26-2,1.89-1.66,1.51-2-.94c-.39-.19-.78-.36-1.18-.52s-.78-.3-1.17-.43L28.61,8.6V3.78H22.36V8.6l-2.14.76c-.39.13-.8.27-1.22.43s-.83.33-1.23.52l-1.95.94L14.16,9.74,12.21,7.85l-4.4,4.26,2,1.89,1.56,1.61-1,1.89c-.19.38-.37.77-.53,1.18s-.31.81-.44,1.19L8.6,22h-5V28h5l.78,2.08c.13.38.27.76.44,1.14s.34.75.53,1.13l1,2L9.77,36l-2,1.89,2.93,2.84-2,2.37L5.57,39.93a2.81,2.81,0,0,1-.88-2.13,2.84,2.84,0,0,1,.88-2.13l1.95-1.89c-.19-.44-.41-.88-.63-1.32A6.72,6.72,0,0,1,6.35,31H3.61a3,3,0,0,1-2.24-.9A2.93,2.93,0,0,1,.49,28V22a2.9,2.9,0,0,1,.88-2.18,3.06,3.06,0,0,1,2.24-.85H6.35a6.72,6.72,0,0,1,.54-1.42c.22-.44.44-.88.63-1.32l-1.95-1.9a3.07,3.07,0,0,1-.88-2.17A2.8,2.8,0,0,1,5.57,10l4.49-4.35a3,3,0,0,1,2.15-.85,3.06,3.06,0,0,1,2.24.85l2,1.89c.45-.19.91-.39,1.36-.61a7.11,7.11,0,0,1,1.47-.52V3.78a2.89,2.89,0,0,1,.88-2.18A3.06,3.06,0,0,1,22.36.75h6.25a3.09,3.09,0,0,1,2.25.85,2.89,2.89,0,0,1,.88,2.18V6.43A6.82,6.82,0,0,1,33.2,7c.46.22.92.42,1.37.61l2-1.89a3.1,3.1,0,0,1,2.25-.85,3,3,0,0,1,2.15.85L45.41,10a2.8,2.8,0,0,1,.88,2.09,3.07,3.07,0,0,1-.88,2.17l-1.95,1.9,1.07,2.55H41.21a2,2,0,0,1-.29-.61,2.34,2.34,0,0,0-.29-.62l-1.08-1.89L41.21,14ZM24.9,28.48a1.47,1.47,0,0,1-.29.95L18.36,37l6.25,7.67a5.13,5.13,0,0,1,.2,1,2.16,2.16,0,0,1-.35,1.13,1.39,1.39,0,0,1-1.31.57,2,2,0,0,1-1.37-.66l-8-9.75,8-9.66a1.45,1.45,0,0,1,1.37-.66,1.49,1.49,0,0,1,1.07.38A1.78,1.78,0,0,1,24.9,28.48Zm6-6.53a6.13,6.13,0,0,0-2.25-2.18,6.05,6.05,0,0,0-3.12-.85,6.12,6.12,0,0,0-4,1.42,5.91,5.91,0,0,0-2.1,3.6l-2.83,3.4a6.45,6.45,0,0,1-.4-2.36,8.65,8.65,0,0,1,2.74-6.44,9.22,9.22,0,0,1,6.64-2.65A9,9,0,0,1,31,17.6,9.19,9.19,0,0,1,34.28,22Zm4.88,2.93a1.45,1.45,0,0,1,1.22.57,1.82,1.82,0,0,1,.44,1.14,1.29,1.29,0,0,1-.09.66L30.27,48a1.66,1.66,0,0,1-1.75,1.23,1.57,1.57,0,0,1-1.27-.57,1.84,1.84,0,0,1-.49-1.23c0-.32,0-.5.1-.57L34,26.21A1.77,1.77,0,0,1,35.74,24.88ZM50.49,37l-8,9.75a2.07,2.07,0,0,1-1.46.66A1.5,1.5,0,0,1,39.94,47a1.6,1.6,0,0,1-.29-2.36L45.9,37l-6.25-7.57a1.38,1.38,0,0,1-.39-1A1.54,1.54,0,0,1,41,26.68a2.07,2.07,0,0,1,1.46.66Z"/></svg>
